components/icon/svg/24/action_shopping-cart.svg

<?xml version="1.0" encoding="UTF-8"?>
<svg width="24px" height="24px" viewBox="0 0 24 24" version="1.1" xmlns="http://www.w3.org/2000/svg" xmlns:xlink="http://www.w3.org/1999/xlink">
    <!-- Generator: Sketch 64 (93537) - https://sketch.com -->
    <title>ic-db_action_shopping-cart_24</title>
    <desc>Created with Sketch.</desc>
    <g id="Symbols" stroke="none" stroke-width="1" fill="none" fill-rule="evenodd">
        <g id="24dp-Icon/Action/Shopping-Cart" fill="#282D37">
            <path d="M9.75,19.5 C10.4375,19.5 11,20.0625 11,20.75 C11,21.4375 10.4375,22 9.75,22 C9.0625,22 8.5,21.4375 8.5,20.75 C8.5,20.0625 9.0625,19.5 9.75,19.5 Z M16.75,19.5 C17.4375,19.5 18,20.0625 18,20.75 C18,21.4375 17.4375,22 16.75,22 C16.0625,22 15.5,21.4375 15.5,20.75 C15.5,20.0625 16.0625,19.5 16.75,19.5 Z M4.15625,2 C5.46875,2 6.6875,2.5 7,4.0937 L20.25,4.0937 C21.34375,4.0937 22.1875,5.0937 21.96875,6.1563 L21,11.1563 C20.78125,12.2187 19.90625,13.0313 18.8125,13.1563 L8.65625,14.2187 L8.90625,15.5937 C8.9375,15.8437 9.15625,16.0313 9.375,16.0313 L18.125,16.0313 C18.6875,16.0313 19.15625,16.4687 19.15625,17.0313 C19.15625,17.5625 18.6875,18 18.125,18 L9.375,18 C8.15625,18 7.09375,17.125 6.90625,15.9063 L5.125,4.8437 C5.0625,4.3437 4.625,4 4.15625,4 L3,4 C2.4375,4 2,3.5625 2,3 C2,2.4687 2.4375,2 3,2 L4.15625,2 Z M19.78125,6.0313 L7.28125,6.0313 L8.25,12.25 L18.4375,11.1563 C18.65625,11.125 18.84375,10.9687 18.875,10.75 L19.78125,6.0313 Z" id="🎨-Color"></path>
        </g>
    </g>
</svg>

<svg width="24" height="24" xmlns="http://www.w3.org/2000/svg"><path d="M9.75 19.5c.688 0 1.25.563 1.25 1.25 0 .688-.563 1.25-1.25 1.25-.688 0-1.25-.563-1.25-1.25 0-.688.563-1.25 1.25-1.25zm7 0c.688 0 1.25.563 1.25 1.25 0 .688-.563 1.25-1.25 1.25-.688 0-1.25-.563-1.25-1.25 0-.688.563-1.25 1.25-1.25zM4.156 2C5.47 2 6.688 2.5 7 4.094h13.25c1.094 0 1.938 1 1.719 2.062l-.969 5a2.524 2.524 0 01-2.188 2L8.656 14.22l.25 1.375c.031.25.25.437.469.437h8.75c.563 0 1.031.438 1.031 1 0 .532-.468.969-1.031.969h-8.75c-1.219 0-2.281-.875-2.469-2.094L5.125 4.844A.975.975 0 004.156 4H3c-.563 0-1-.438-1-1 0-.531.438-1 1-1h1.156zm15.625 4.031h-12.5l.969 6.219 10.188-1.094c.218-.031.406-.187.437-.406l.906-4.719z" fill="#282D37" fill-rule="evenodd"/></svg>
